brandFactory_export/2.Regular/Data settings_2Regular.svg

<?xml version="1.0" encoding="UTF-8"?>
<svg width="24px" height="24px" viewBox="0 0 24 24" version="1.1" xmlns="http://www.w3.org/2000/svg" xmlns:xlink="http://www.w3.org/1999/xlink">
    <title>2.Regular/Data settings_2Regular</title>
    <g id="Symbols" stroke="none" stroke-width="1" fill="none" fill-rule="evenodd">
        <g id="2.Regular/Data-settings_2Regular" fill="#5CB615" fill-rule="nonzero">
            <path d="M8.70588235,17.4319328 C10.2991597,17.4319328 11.0756303,16.6689076 11.0756303,15.102521 C11.0756303,13.5361345 10.2991597,12.7731092 8.70588235,12.7731092 C7.11260504,12.7731092 6.33613445,13.5361345 6.33613445,15.102521 C6.33613445,16.6722689 7.11260504,17.4319328 8.70588235,17.4319328 Z M8.70588235,11.3277311 C11.112605,11.3277311 12.5512605,12.7394958 12.5512605,15.1058824 C12.5512605,17.4722689 11.112605,18.8840336 8.70588235,18.8840336 C6.29915966,18.8840336 4.8605042,17.4722689 4.8605042,15.1058824 C4.8605042,12.7394958 6.29915966,11.3277311 8.70588235,11.3277311 Z M22.1815126,8.96806723 L22.1815126,5.25042017 C21.7210084,5.52605042 21.1596639,5.76470588 20.4773109,5.96638655 C19.0218487,6.39663866 17.1193277,6.63193277 15.112605,6.63193277 C13.1092437,6.63193277 11.2033613,6.39663866 9.7512605,5.96638655 C9.06218487,5.76470588 8.4907563,5.51596639 8.02352941,5.2302521 L8.02352941,6.59159664 C8.05042017,6.58823529 8.07394958,6.58487395 8.10084034,6.58487395 L9.31428571,6.58487395 C10.1579832,6.58487395 10.8436975,7.25714286 10.8436975,8.08739496 L10.8436975,8.96470588 C11.1226891,9.03193277 11.3848739,9.11260504 11.6403361,9.21344538 L12.389916,8.47731092 C12.9915966,7.88907563 13.9663866,7.88907563 14.5680672,8.47731092 L15.4554622,9.3512605 C15.7445378,9.63361345 15.9058824,10.0134454 15.9058824,10.4201681 C15.9058824,10.5680672 15.8789916,10.7092437 15.8386555,10.8470588 C17.4151261,10.7966387 18.907563,10.6016807 20.0571429,10.2621849 C21.2672269,9.89579832 21.9394958,9.35798319 22.1815126,8.96806723 L22.1815126,8.96806723 Z M22.1815126,14.6722689 L22.1815126,10.9008403 C21.7008403,11.1966387 21.1294118,11.4521008 20.4806723,11.6436975 C19.0218487,12.0739496 17.1159664,12.3092437 15.1159664,12.3092437 C14.9882353,12.3092437 14.8605042,12.3058824 14.7327731,12.3058824 C14.8168067,12.5310924 14.8941176,12.7630252 14.9546218,13.005042 L15.8487395,13.005042 C16.692437,13.005042 17.3781513,13.6773109 17.3781513,14.507563 L17.3781513,15.7008403 C17.3781513,15.9798319 17.2941176,16.2386555 17.1596639,16.4638655 C18.2352941,16.3663866 19.2336134,16.2016807 20.0571429,15.9563025 C21.2672269,15.6 21.9394958,15.0621849 22.1815126,14.6722689 L22.1815126,14.6722689 Z M22.1815126,19.9697479 L22.1815126,16.605042 C21.697479,16.9008403 21.1294118,17.1563025 20.4806723,17.3478992 C19.0218487,17.7781513 17.1193277,18.0134454 15.1159664,18.0134454 C14.9848739,18.0134454 14.8571429,18.0067227 14.7260504,18.0067227 L15.4554622,18.7260504 C15.7445378,19.0084034 15.9058824,19.3882353 15.9058824,19.794958 C15.9058824,20.1983193 15.7445378,20.5815126 15.4554622,20.8638655 L14.5680672,21.7344538 C14.3294118,21.9663866 14.0168067,22.0806723 13.697479,22.1243697 C14.1579832,22.1546218 14.6252101,22.1714286 15.0991597,22.1714286 C16.9579832,22.1714286 18.7159664,21.9563025 20.0436975,21.5663866 C21.0184874,21.2739496 22.1815126,20.7630252 22.1815126,19.9697479 L22.1815126,19.9697479 Z M12.3294118,19.6235294 L13.4352941,20.7092437 L14.4134454,19.8386555 L13.307563,18.6621849 C13.0823529,18.4436975 13.0252101,18.1042017 13.1663866,17.8285714 C13.3815126,17.405042 13.5361345,16.9109244 13.6268908,16.3630252 C13.6840336,16.0134454 13.9932773,15.7546218 14.3563025,15.7546218 L15.8521008,15.7546218 L15.9058824,14.507563 L14.3563025,14.4537815 C13.9932773,14.4537815 13.6840336,14.194958 13.6268908,13.8453782 C13.5361345,13.297479 13.3815126,12.8033613 13.1663866,12.3798319 C13.0252101,12.1008403 13.0823529,11.7647059 13.307563,11.5462185 L14.4134454,10.4605042 L13.5260504,9.49915966 L12.3294118,10.5848739 C12.107563,10.8033613 11.7647059,10.8571429 11.4857143,10.7226891 C11.0285714,10.5042017 10.5512605,10.3596639 9.98991597,10.2689076 C9.6302521,10.2117647 9.36806723,9.9092437 9.36806723,9.55294118 L9.36806723,8.08403361 L8.10084034,8.0302521 L8.04705882,9.54957983 C8.04705882,9.90588235 7.78487395,10.2084034 7.42521008,10.2655462 C6.87058824,10.3529412 6.3697479,10.5042017 5.93277311,10.7159664 C5.65042017,10.8537815 5.30756303,10.7966387 5.08235294,10.5781513 L3.97647059,9.49243697 L2.99831933,10.3630252 L4.10084034,11.5361345 C4.33613445,11.7647059 4.38319328,12.1210084 4.22184874,12.4033613 C4.02689076,12.7428571 3.86218487,13.3680672 3.78487395,13.8386555 C3.72436975,14.1882353 3.41848739,14.4470588 3.05546218,14.4470588 L1.55966387,14.4470588 L1.50588235,15.6941176 L3.05546218,15.7478992 C3.41512605,15.7478992 3.72436975,16.0033613 3.78487395,16.3563025 C3.86218487,16.8302521 4.0302521,17.4554622 4.22184874,17.7915966 C4.38319328,18.0739496 4.33613445,18.4302521 4.10084034,18.6588235 L2.99831933,19.7445378 L3.88571429,20.7058824 L5.08235294,19.6201681 C5.22352941,19.4823529 5.41176471,19.4084034 5.60336134,19.4084034 C5.71428571,19.4084034 5.82857143,19.4319328 5.92941176,19.4823529 C6.36302521,19.6941176 6.86386555,19.8453782 7.42184874,19.9327731 C7.77815126,19.989916 8.04033613,20.292437 8.04033613,20.6487395 L8.04033613,22.1176471 L9.30756303,22.1714286 C9.33445378,22.1714286 9.36134454,22.1478992 9.36134454,22.1176471 L9.36134454,20.6487395 C9.36134454,20.292437 9.62352941,19.989916 9.98319328,19.9327731 C10.5445378,19.8453782 11.0184874,19.697479 11.4789916,19.4789916 C11.7647059,19.3478992 12.107563,19.405042 12.3294118,19.6235294 L12.3294118,19.6235294 Z M10.8436975,21.7277311 C11.4689076,21.8722689 12.1579832,21.9798319 12.8941176,22.0537815 C12.7092437,21.9831933 12.5378151,21.8756303 12.3932773,21.7344538 L11.6436975,20.9983193 C11.3848739,21.0991597 11.1226891,21.1798319 10.8470588,21.2470588 L10.8470588,21.7277311 L10.8436975,21.7277311 Z M10.1613445,2.05378151 C9.03529412,2.38655462 8.32941176,2.8302521 8.11428571,3.31092437 C8.31932773,3.79495798 9.03865546,4.24201681 10.1747899,4.58151261 C11.4957983,4.97142857 13.2470588,5.18655462 15.112605,5.18655462 C16.9781513,5.18655462 18.7327731,4.97142857 20.0504202,4.58151261 C21.1731092,4.2487395 21.892437,3.80504202 22.107563,3.32773109 C21.8453782,2.71260504 20.8773109,2.30252101 20.0403361,2.05378151 C18.7193277,1.66386555 16.9647059,1.4487395 15.0991597,1.4487395 C13.2369748,1.4487395 11.4823529,1.66386555 10.1613445,2.05378151 Z M20.4672269,0.665546218 C22.5815126,1.2907563 23.6571429,2.29579832 23.6571429,3.64705882 L23.6571429,19.9697479 C23.6571429,21.3210084 22.5848739,22.3260504 20.4672269,22.9512605 C19.005042,23.3815126 17.0991597,23.6168067 15.0991597,23.6168067 C13.4117647,23.6168067 11.7915966,23.4386555 10.4403361,23.1226891 C10.1613445,23.4285714 9.76134454,23.6235294 9.31092437,23.6235294 L8.10084034,23.6235294 C7.25714286,23.6235294 6.57142857,22.9512605 6.57142857,22.1210084 L6.57142857,21.2436975 C6.29243697,21.1764706 6.02689076,21.092437 5.77142857,20.9983193 L5.02184874,21.7344538 C4.44033613,22.3058824 3.42857143,22.3058824 2.84369748,21.7344538 L1.95630252,20.8638655 C1.66722689,20.5781513 1.50588235,20.1983193 1.50588235,19.794958 C1.50588235,19.3882353 1.66722689,19.0084034 1.95966387,18.7226891 L2.69915966,17.9932773 C2.59495798,17.7243697 2.51428571,17.4420168 2.45378151,17.2033613 L1.55966387,17.2033613 C0.715966387,17.2033613 0.0302521008,16.5277311 0.0302521008,15.7008403 L0.0302521008,14.507563 C0.0302521008,13.6806723 0.715966387,13.005042 1.55966387,13.005042 L2.45378151,13.005042 C2.51428571,12.7630252 2.59495798,12.4840336 2.69915966,12.2117647 L1.95630252,11.4823529 C1.66722689,11.1966387 1.50588235,10.8168067 1.50588235,10.410084 C1.50588235,10.0033613 1.66722689,9.62352941 1.95966387,9.34117647 L2.84369748,8.47058824 C3.44201681,7.88235294 4.42016807,7.88235294 5.02184874,8.47058824 L5.77142857,9.21008403 C6.02352941,9.11260504 6.29243697,9.03193277 6.57142857,8.96470588 L6.57142857,8.22521008 C6.56470588,8.19159664 6.5512605,8.15798319 6.5512605,8.12436975 L6.5512605,3.64705882 C6.5512605,3.42857143 6.58151261,3.21344538 6.64201681,3.01176471 C6.94453782,1.97647059 7.98655462,1.18655462 9.74117647,0.668907563 C11.1966387,0.238655462 13.102521,0.0033258221 15.1058824,0.0033258221 C17.1058824,2.90783023e-15 19.0117647,0.235294118 20.4672269,0.665546218 Z" id="Data-settings_2Regular"></path>
        </g>
    </g>
</svg>

<svg width="24" height="24" viewBox="0 0 24 24" xmlns="http://www.w3.org/2000/svg"><path d="M8.706 17.432c1.593 0 2.37-.763 2.37-2.33 0-1.566-.777-2.329-2.37-2.329s-2.37.763-2.37 2.33c0 1.57.777 2.329 2.37 2.329zm0-6.104c2.407 0 3.845 1.411 3.845 3.778 0 2.366-1.438 3.778-3.845 3.778S4.86 17.472 4.86 15.106c0-2.367 1.438-3.778 3.845-3.778zm13.476-2.36V5.25c-.461.276-1.022.515-1.705.716-1.455.43-3.358.666-5.364.666-2.004 0-3.91-.235-5.362-.666-.689-.201-1.26-.45-1.727-.736v1.362c.026-.004.05-.007.077-.007h1.213c.844 0 1.53.672 1.53 1.502v.878c.279.067.54.148.796.248l.75-.736a1.565 1.565 0 012.178 0l.887.874c.29.283.45.662.45 1.07 0 .147-.026.288-.066.426 1.576-.05 3.069-.245 4.218-.585 1.21-.366 1.882-.904 2.125-1.294zm0 5.704v-3.771a7.07 7.07 0 01-1.701.743c-1.46.43-3.365.665-5.365.665-.128 0-.255-.003-.383-.003.084.225.161.457.222.699h.894c.843 0 1.53.672 1.53 1.503V15.7c0 .279-.085.538-.22.763 1.076-.098 2.075-.262 2.898-.508 1.21-.356 1.882-.894 2.125-1.284zm0 5.298v-3.365a7.13 7.13 0 01-1.701.743c-1.46.43-3.362.665-5.365.665-.131 0-.259-.006-.39-.006l.73.72a1.49 1.49 0 010 2.138l-.888.87c-.239.231-.551.346-.87.39.46.03.927.046 1.401.046 1.859 0 3.617-.215 4.945-.605.974-.292 2.138-.803 2.138-1.596zm-9.853-.346l1.106 1.085.978-.87-1.105-1.177a.712.712 0 01-.142-.833c.216-.424.37-.918.46-1.466a.735.735 0 01.73-.608h1.496l.054-1.247-1.55-.054a.735.735 0 01-.73-.609 5.066 5.066 0 00-.46-1.465.711.711 0 01.142-.834l1.105-1.085-.887-.962-1.197 1.086a.748.748 0 01-.843.138 5.365 5.365 0 00-1.496-.454.729.729 0 01-.622-.716V8.084L8.101 8.03l-.054 1.52a.729.729 0 01-.622.716 5.314 5.314 0 00-1.492.45.753.753 0 01-.85-.138L3.975 9.492l-.978.871 1.103 1.173a.714.714 0 01.12.867c-.194.34-.359.965-.436 1.436a.737.737 0 01-.73.608H1.56l-.054 1.247 1.55.054c.36 0 .668.255.729.608.077.474.245 1.1.437 1.436a.714.714 0 01-.121.867l-1.103 1.086.888.96 1.196-1.085a.746.746 0 01.847-.138c.434.212.935.363 1.493.45.356.058.618.36.618.717v1.469l1.268.053a.055.055 0 00.053-.053v-1.47c0-.356.263-.658.622-.715a5.289 5.289 0 001.496-.454.765.765 0 01.85.145zm-1.485 2.104c.625.144 1.314.252 2.05.326a1.463 1.463 0 01-.5-.32l-.75-.736c-.26.101-.521.182-.797.25v.48h-.003zM10.16 2.054c-1.126.333-1.832.776-2.047 1.257.205.484.925.931 2.06 1.27 1.322.39 3.073.606 4.939.606 1.865 0 3.62-.216 4.937-.605 1.123-.333 1.842-.777 2.058-1.254-.263-.615-1.23-1.025-2.068-1.274-1.32-.39-3.075-.605-4.94-.605-1.863 0-3.618.215-4.939.605zM20.467.666c2.115.625 3.19 1.63 3.19 2.981V19.97c0 1.351-1.072 2.356-3.19 2.981-1.462.43-3.368.666-5.368.666-1.687 0-3.307-.178-4.659-.494-.279.306-.679.5-1.13.5H8.1c-.843 0-1.529-.672-1.529-1.502v-.877a7.163 7.163 0 01-.8-.246l-.75.736c-.58.572-1.592.572-2.177 0l-.888-.87a1.496 1.496 0 01.004-2.141l.74-.73a6.958 6.958 0 01-.246-.79H1.56c-.844 0-1.53-.675-1.53-1.502v-1.193c0-.827.686-1.503 1.53-1.503h.894c.06-.242.141-.521.245-.793l-.743-.73a1.498 1.498 0 01.004-2.14l.884-.871a1.565 1.565 0 012.178 0l.75.74c.252-.098.52-.18.8-.246v-.74c-.007-.033-.02-.067-.02-.1V3.646c0-.218.03-.434.09-.635.303-1.036 1.345-1.825 3.1-2.343 1.455-.43 3.36-.666 5.364-.666 2-.003 3.906.232 5.361.663z" fill="#5CB615" fill-rule="nonzero"/></svg>
